X:26
T:Lichtmann 26
C:G. F. Handel
M:C|
L:1/8
Q:"Allegro maestoso" 1/2=66
K:Bb
!f!B4"_stately"f4|d2c2B2f2|d2c2d2B2|c4F4|B4f4|d2c2B2f2|
d2 cB cedc|B8||!mf!B2d4cB|c2f4F2|B2d4cB|c4F4|B2d4cB|
c2e4dc|f2edd2cB|B6!f!F2|B2AB c2Bc|d2B2F2c2|d2cde2de|
f2d2B2f2|g4f4|e4d4|c2d2d2cB|c6"_mp"f2|f2c2dcBd|
c6!f!c2|f2fed2dc|B2BAG2cd|e2edc2cB|A2AGF2F2|B2F2c2F2|
d4c4|d2c2d2e2|f6f2|g2fgc2de|f2efB2fe|d2f2d2cB|B8|]

